color/bnb.svg

<!-- Generated by IcoMoon.io -->
<svg version="1.1" xmlns="http://www.w3.org/2000/svg" width="32" height="32" viewBox="0 0 32 32">
<title>bnb</title>
<path fill="#f3ba2f" d="M32 16c0 8.837-7.163 16-16 16s-16-7.163-16-16c0-8.837 7.163-16 16-16s16 7.163 16 16z"></path>
<path fill="#fff" d="M12.116 14.404l3.884-3.884 3.886 3.886 2.26-2.26-6.146-6.146-6.144 6.144 2.26 2.26zM6 16l2.26-2.26 2.26 2.26-2.26 2.26-2.26-2.26zM12.116 17.596l3.884 3.884 3.886-3.886 2.26 2.259-6.146 6.147-6.147-6.147 2.263-2.257zM21.48 16l2.26-2.26 2.26 2.26-2.26 2.26-2.26-2.26zM18.292 15.998h0.002v0.002l-2.294 2.294-2.295-2.294 0.004-0.003 0.596-0.597 1.695-1.694 2.293 2.293z"></path>
</svg>

<svg xmlns="http://www.w3.org/2000/svg" width="32" height="32"><g fill="none"><circle cx="16" cy="16" r="16" fill="#F3BA2F"/><path fill="#FFF" d="M12.116 14.404L16 10.52l3.886 3.886 2.26-2.26L16 6l-6.144 6.144 2.26 2.26zM6 16l2.26-2.26L10.52 16l-2.26 2.26L6 16zm6.116 1.596L16 21.48l3.886-3.886 2.26 2.259L16 26l-6.144-6.144-.003-.003 2.263-2.257zM21.48 16l2.26-2.26L26 16l-2.26 2.26L21.48 16zm-3.188-.002h.002V16L16 18.294l-2.291-2.29-.004-.004.004-.003.401-.402.195-.195L16 13.706l2.293 2.293z"/></g></svg>
